<?xml version="1.0" encoding="UTF-8"?>
<map version="1.10" tiledversion="1.12.1" orientation="orthogonal" renderorder="right-down" width="20" height="10" tilewidth="16" tileheight="16" infinite="0" nextlayerid="8" nextobjectid="4">
 <tileset firstgid="1" source="Terrain.tsx"/>
 <tileset firstgid="257" source="Houses.tsx"/>
 <tileset firstgid="513" source="Objects.tsx"/>
 <layer id="3" name="fluid" width="20" height="10">
  <data encoding="csv">
0,0,0,0,0,0,0,0,0,0,0,0,0,0,219,219,219,219,219,219,
0,0,0,0,0,0,0,0,0,0,0,0,0,219,219,219,219,219,219,219,
0,0,0,0,0,0,0,0,0,0,0,0,0,0,219,219,219,219,219,219,
0,0,0,0,0,0,0,0,0,0,0,0,0,219,219,219,219,219,219,219,
0,0,0,0,0,0,0,0,0,0,0,0,0,0,0,0,0,0,0,0,
0,0,0,0,0,0,0,0,0,0,0,0,0,0,0,0,0,0,0,0,
0,0,0,0,0,0,0,0,0,0,0,0,0,0,0,0,0,0,0,0,
0,0,0,0,0,0,0,0,0,0,0,0,0,0,0,0,0,0,0,0,
0,0,0,0,0,0,0,0,0,0,0,0,0,0,0,0,0,0,0,0,
0,0,0,0,0,0,0,0,0,0,0,0,0,0,0,0,0,0,0,0
</data>
 </layer>
 <layer id="1" name="ground" width="20" height="10">
  <data encoding="csv">
118,118,118,118,118,118,118,118,118,102,118,118,118,118,119,0,0,0,0,0,
118,118,118,118,118,118,118,118,118,118,118,118,118,102,119,0,0,0,0,0,
118,118,118,118,118,118,118,118,102,118,118,118,118,118,119,0,0,0,0,0,
118,102,118,118,118,118,118,118,118,118,118,118,118,118,135,136,136,136,136,136,
118,118,118,118,118,118,118,118,118,102,118,118,118,118,118,118,118,118,118,118,
118,118,118,118,102,118,118,118,118,118,118,118,118,118,118,118,118,118,118,118,
118,118,118,118,118,118,118,118,118,118,118,118,118,118,118,118,118,118,118,118,
102,118,118,118,118,118,118,118,102,118,118,118,118,118,118,118,102,118,118,118,
118,118,118,118,118,118,118,118,118,118,118,118,118,118,118,118,118,118,118,118,
118,118,118,118,118,118,118,118,118,118,118,118,118,118,118,118,118,118,118,118
</data>
 </layer>
 <layer id="6" name="ground overlay" width="20" height="10">
  <data encoding="csv">
0,0,0,0,0,0,0,0,0,0,0,0,0,0,0,0,0,0,0,0,
0,0,0,0,0,0,0,0,0,0,0,0,0,0,0,0,0,0,0,0,
0,0,0,0,0,0,0,0,0,0,0,0,0,0,0,0,0,0,0,0,
0,0,0,0,0,0,0,0,0,0,0,0,0,0,0,0,0,0,0,0,
0,0,0,0,0,536,0,0,0,0,0,0,0,0,0,0,0,0,0,0,
0,0,518,519,551,552,0,0,0,0,0,0,0,0,0,0,0,0,0,0,
0,0,534,0,0,0,0,0,0,0,0,0,0,0,0,0,302,303,304,0,
519,551,552,0,0,0,0,0,0,0,0,0,0,0,0,542,318,319,320,0,
0,0,0,0,0,0,0,0,0,0,0,0,0,0,0,0,308,309,310,0,
0,0,0,0,0,0,0,0,0,0,0,0,0,0,0,0,0,0,0,0
</data>
 </layer>
 <layer id="2" name="cliffs" width="20" height="10">
  <data encoding="csv">
0,0,0,0,0,0,0,0,0,0,0,115,0,0,0,0,0,0,0,0,
0,0,0,0,0,0,0,0,0,0,0,115,0,0,0,0,0,0,0,0,
0,0,0,0,0,0,0,0,0,0,0,116,99,0,0,0,0,0,0,0,
0,0,0,0,0,0,0,0,0,0,0,0,115,0,0,0,0,0,0,0,
0,0,0,0,0,0,0,0,0,0,0,0,115,0,0,0,0,0,0,0,
0,0,0,0,0,0,0,0,0,0,0,0,116,98,98,98,98,98,98,98,
0,0,0,0,0,0,0,0,0,0,0,0,0,0,0,0,0,0,0,0,
0,0,0,0,0,0,0,0,0,0,0,0,0,0,0,0,0,0,0,0,
0,0,0,0,0,0,0,0,0,0,0,0,0,0,0,0,0,0,0,0,
0,0,0,0,0,0,0,0,0,0,0,0,0,0,0,0,0,0,0,0
</data>
 </layer>
 <layer id="4" name="collision tiles" width="20" height="10">
  <properties>
   <property name="collision" type="bool" value="true"/>
  </properties>
  <data encoding="csv">
0,0,0,0,0,0,0,0,0,0,0,0,0,0,0,0,0,0,0,0,
0,0,0,0,0,0,0,0,0,0,0,0,0,0,0,0,0,0,0,0,
0,0,0,0,305,306,307,0,0,0,0,0,0,0,0,0,0,0,0,0,
0,0,0,0,321,322,323,538,0,0,0,0,0,0,0,0,0,0,0,0,
0,0,0,0,0,0,0,0,0,0,0,0,0,0,0,0,0,0,0,0,
0,0,0,0,0,0,0,0,0,0,0,0,0,517,0,0,0,0,0,0,
0,0,0,0,0,0,0,0,0,0,0,0,0,533,0,0,0,0,0,0,
0,0,0,0,0,0,0,0,0,0,0,0,0,533,0,0,0,0,0,0,
0,0,0,0,0,0,0,0,0,0,0,0,0,533,0,0,0,0,0,0,
0,0,0,0,0,0,0,0,0,0,0,0,0,533,0,0,0,0,0,0
</data>
 </layer>
 <layer id="5" name="overhead" width="20" height="10">
  <properties>
   <property name="overhead" type="bool" value="true"/>
  </properties>
  <data encoding="csv">
0,0,0,0,0,0,0,0,0,0,0,0,0,0,0,0,0,0,0,0,
0,0,0,0,289,290,291,0,0,0,0,0,0,0,0,0,0,0,0,0,
0,0,0,0,0,0,0,0,0,0,0,0,0,0,0,0,0,0,0,0,
0,0,0,0,0,0,0,0,0,0,0,0,0,0,0,0,0,0,0,0,
0,0,0,0,0,0,0,0,0,0,0,0,0,0,0,0,0,0,0,0,
0,0,0,0,0,0,0,0,0,0,0,0,0,0,0,0,0,0,0,0,
0,0,0,0,0,0,0,0,0,0,0,0,0,0,0,0,0,0,0,0,
0,0,0,0,0,0,0,0,0,0,0,0,0,0,0,0,0,0,0,0,
0,0,0,0,0,0,0,0,0,0,0,0,0,0,0,0,0,0,0,0,
0,0,0,0,0,0,0,0,0,0,0,0,0,0,0,0,0,0,0,0
</data>
 </layer>
 <objectgroup id="7" name="collision shapes">
  <properties>
   <property name="collision" type="bool" value="true"/>
  </properties>
  <object id="1" x="185.75" y="-16.75" width="30" height="52"/>
  <object id="2" x="201.5" y="4.75" width="37" height="80.75"/>
  <object id="3" x="207.75" y="67.75" width="25.5" height="94.5"/>
 </objectgroup>
</map>
