<?xml version="1.0" encoding="UTF-8"?>
<map version="1.10" tiledversion="1.12.1" orientation="orthogonal" renderorder="right-down" width="20" height="10" tilewidth="32" tileheight="32" infinite="0" nextlayerid="5" nextobjectid="4">
 <tileset firstgid="1" source="grassy-plains.tsx"/>
 <layer id="3" name="background layer 1" width="20" height="10">
  <data encoding="csv">
0,0,0,0,0,0,38,39,0,0,0,43,44,40,0,0,0,0,0,0,
0,0,0,0,0,0,0,0,0,0,0,0,0,0,0,0,0,43,44,2147483691,
38,39,0,0,0,0,0,0,0,0,0,0,0,0,0,0,0,0,0,0,
0,0,0,0,0,0,0,0,0,0,0,0,0,0,0,0,0,0,0,0,
0,0,0,0,0,0,0,0,0,0,0,0,52,0,0,0,0,0,51,0,
0,0,0,0,0,0,0,0,0,0,0,0,0,0,0,0,0,0,0,0,
0,0,0,0,0,0,0,0,0,0,0,0,0,0,0,0,0,24,24,24,
0,0,0,0,0,0,0,0,0,0,0,0,0,0,0,0,0,0,0,0,
0,0,0,0,0,0,0,0,0,0,0,0,0,0,0,0,0,0,0,0,
0,0,0,0,0,0,0,0,0,0,0,0,0,0,0,0,0,0,0,0
</data>
 </layer>
 <layer id="1" name="standard-collision" width="20" height="10">
  <properties>
   <property name="collision" type="bool" value="true"/>
  </properties>
  <data encoding="csv">
0,0,0,0,0,0,0,0,0,0,0,0,0,0,0,0,0,0,0,0,
0,0,0,0,0,0,0,0,0,0,0,0,0,0,0,0,0,0,0,0,
0,0,0,0,0,0,0,0,0,0,0,0,0,0,0,0,0,0,0,0,
0,0,0,0,0,0,0,0,0,0,0,0,0,0,0,0,0,0,0,0,
0,0,0,0,0,0,0,0,0,0,0,0,0,0,0,0,0,0,0,0,
0,0,0,0,0,0,0,0,0,0,1,1,1,1,2,0,0,3,1,2,
0,0,0,0,0,0,0,0,0,62,5,5,5,5,6,0,0,0,0,0,
0,0,0,0,0,0,0,0,62,5,5,5,5,5,6,0,0,0,0,0,
0,0,0,0,0,0,62,5,5,5,5,5,5,5,6,0,0,0,0,0,
1,1,1,1,62,5,5,5,5,5,5,5,5,5,6,0,0,0,0,0
</data>
 </layer>
 <layer id="2" name="slope tiles" width="20" height="10">
  <data encoding="csv">
0,0,0,0,0,0,0,0,0,0,0,0,0,0,0,0,0,0,0,0,
0,0,0,0,0,0,0,0,0,0,0,0,0,0,0,0,0,0,0,0,
0,0,0,0,0,0,0,0,0,0,0,0,0,0,0,0,0,0,0,0,
0,0,0,0,0,0,0,0,0,0,0,0,0,0,0,0,0,0,0,0,
0,0,0,0,0,0,0,0,0,0,0,0,0,0,0,0,0,0,0,0,
0,0,0,0,0,0,0,0,0,57,0,0,0,0,0,0,0,0,0,0,
0,0,0,0,0,0,0,0,57,0,0,0,0,0,0,0,0,0,0,0,
0,0,0,0,0,0,53,54,0,0,0,0,0,0,0,0,0,0,0,0,
0,0,0,0,53,54,0,0,0,0,0,0,0,0,0,0,0,0,0,0,
0,0,0,0,62,0,0,0,0,0,0,0,0,0,0,0,0,0,0,0
</data>
 </layer>
 <objectgroup id="4" name="custom collision">
  <properties>
   <property name="collision" type="bool" value="true"/>
  </properties>
  <object id="1" x="130.5" y="288.5">
   <polygon points="-51.25,26 130.5,-63.75 169.418,-40.2879 158.75,13 -0.249743,30.2418"/>
  </object>
  <object id="2" x="258.25" y="227">
   <polygon points="0,0 62.5,-66.25 98.0833,-4.33333 15.75,29.3333"/>
  </object>
  <object id="3" x="80" y="288" width="139.5" height="34.25"/>
 </objectgroup>
</map>
